!!!COM:	Johannes Ockeghem
!!!CDT:	~1425-1497/02/06
!!!OPR:	Missa Au travail suis
!!!ONM:	2
!!!OTL:	Gloria
!!!AGN:	Mass; Gloria
!!!SCT:	Ock1002b
!!!SCA:	Ock1002b
!!!voices:	4
!!!voices-OPR:	4
**kern	**kern	**kern	**kern
*staff4	*staff3	*staff2	*staff1
*Ivox	*Ivox	*Ivox	*Ivox
*I"Bassus	*I"Tenor	*I"Contratenor	*I"Discantus
*I'B	*I'T	*I'Ct	*I'D
*>[A,B]	*>[A,B]	*>[A,B]	*>[A,B]
*>A	*>A	*>A	*>A
*clefF4	*clefF4	*clefGv2	*clefG2
*k[]	*k[]	*k[]	*k[]
*M2/1	*M2/1	*M2/1	*M2/1
*met(C)	*met(C)	*met(C)	*met(C)
!!section: Et in terra
!!!OMD: Et in terra
=1-	=1-	=1-	=1-
0r	0r	0r	1d
.	.	.	1f
=2	=2	=2	=2
0r	1r	0r	1e
.	1D	.	1A
=3	=3	=3	=3
0r	1F	0r	1A
.	1E	.	2G/
.	.	.	2G/
=4	=4	=4	=4
0r	1AA	0r	2A/
.	.	.	2c/
.	1r	.	2d/
.	.	.	[2e/
=5	=5	=5	=5
0r	1G	0r	4e/]
.	.	.	4d/
.	.	.	2g/
.	1A	.	2f/
.	.	.	[2e/
=6	=6	=6	=6
0r	2F\	0r	4e/]
.	.	.	4d/
.	2D\	.	1d
.	1E	.	.
.	.	.	2c#i/
=7	=7	=7	=7
2r	1D	2r	1d
2F\	.	2d\	.
2E\	1r	1c	1r
[2A\	.	.	.
=8	=8	=8	=8
2A\]	1r	1B	0r
2G#i\	.	.	.
2A\	2r	1A	.
2F\	2D\	.	.
=9	=9	=9	=9
2E\	2C/	0r	0r
2C/	1E	.	.
2E\	.	.	.
4F\	2C/	.	.
[4G\	.	.	.
=10	=10	=10	=10
4G\]	1BB	1r	1r
4F\	.	.	.
2D\	.	.	.
2r	1AA	1c	2r
[2A\	.	.	2e/
=11	=11	=11	=11
2A\]	2AA/	2c\	2e/
2A\	2AA/	1c	1e
2A\	2AA/	.	.
2A\	2AA/	2c\	2e/
=12	=12	=12	=12
1D	2BB/	1d	1d
.	2.GG/	.	.
1r	.	1r	2.g/
.	4AA/	.	.
.	4BB/	.	.
.	4C/	.	4e/
=13	=13	=13	=13
0r	2.D\	0r	2.f/
.	4E\	.	4g/
.	2F\	.	2a/
.	[2G\	.	[2b-i\
=14	=14	=14	=14
0r	2G\]	0r	2b-\]
.	2F\	.	1a
.	1G	.	.
.	.	.	[2g/
=15	=15	=15	=15
0r	1A	0r	2g/]
.	.	.	2f#i/
.	1G	.	1g
=16	=16	=16	=16
1F	0r	1a	0r
2F\	.	2a\	.
2F\	.	2a\	.
=17	=17	=17	=17
2F\	0r	2a\	0r
2F\	.	2a\	.
2D\	.	2f\	.
2D\	.	2f\	.
=18	=18	=18	=18
1C	1r	1e	1r
1c	2r	1r	1a
.	[2F\	.	.
=19	=19	=19	=19
2c\	2F\]	1f	1a
1c	2F\	.	.
.	2F\	1f	2a/
2A\	2F\	.	2a/
=20	=20	=20	=20
2F\	2D\	1f	2a/
2F\	2D\	.	2a/
1G	1C	1e	1cc
=21	=21	=21	=21
2F\	2.D\	1f	2b\
2.A\	.	.	1a
.	4C/	.	.
.	2AA/	2e\	.
4G\	.	.	.
2E\	2G\	2c\	2g/
=22	=22	=22	=22
2D\	1.A	2d\	2f/
2AA/	.	1c	2.e/
2C/	.	.	.
.	.	.	4d/
2D\	2F\	2A/	[2d/
=23	=23	=23	=23
1AA	1E	1A	2d/]
.	.	.	2c#i/
1A	[1D	1r	1d
=24	=24	=24	=24
0r	1D]	2B\	1r
.	.	2B\	.
.	1r	2c\	2e/
.	.	2c\	2e/
=25	=25	=25	=25
0r	0r	1d	2f/
.	.	.	2f/
.	.	1A	2e/
.	.	.	[2a/
=26	=26	=26	=26
0r	0r	1c	2a/]
.	.	.	2g/
.	.	1d	2.f/
.	.	.	4d/
=27	=27	=27	=27
1r	0r	1A	1e
2F\	.	2a\	1r
2F\	.	[2a\	.
=28	=28	=28	=28
2E\	0r	2a\]	0r
2E\	.	2g\	.
1D	.	2f\	.
.	.	[2b-\	.
=29	=29	=29	=29
1C	0r	2b-\]	0r
.	.	1a	.
1BB	.	.	.
.	.	[2g\	.
=30	=30	=30	=30
1AA	0r	4g\]	0r
.	.	4f\	.
.	.	2.a\	.
1C	.	.	.
.	.	4g\	.
.	.	2e\	.
=31	=31	=31	=31
2D\	0r	2d\	0r
1E	.	1g	.
2D\	.	[2f\	.
=32	=32	=32	=32
2G\	0r	2f\]	0r
2A\	.	1e	.
1F	.	.	.
.	.	2d\	.
=33	=33	=33	=33
1E	2r	1e	0r
.	1C	.	.
1r	.	1r	.
.	2D\	.	.
=34	=34	=34	=34
2r	1E	0r	0r
1C	.	.	.
.	1F	.	.
2D\	.	.	.
=35	=35	=35	=35
1E	1E	0r	2r
.	.	.	1c
1F	1r	.	.
.	.	.	2d/
=36	=36	=36	=36
1E	1C	1g	1e
1A	1D	1f	1f
=37	=37	=37	=37
1.B	0GG	1.d	1.g
2A\	.	2c\	4f/
.	.	.	4e/
=38	=38	=38	=38
0Al;	0AAl;	0cl;	0el;
=39	=39	=39	=39
0r	0r	1f	1a
.	.	2f\	2a/
.	.	2f\	[2a/
=40	=40	=40	=40
0r	0r	2.f\	2a/]
.	.	.	2.a/
.	.	4e\	.
.	.	1c	.
.	.	.	4g/
.	.	.	2e/
=41	=41	=41	=41
0r	0r	1e	2r
.	.	.	2g/
.	.	[1d	2a/
.	.	.	[2b\
=42	=42	=42	=42
0r	0r	2d\]	2b\]
.	.	2c\	1a
.	.	1B	.
.	.	.	2g#i/
=43	=43	=43	=43
1r	1r	1A	1a
!LO:TX:Z=8:t=colored breve	!	!	!
[3%2.AA	1C	1r	1r
=44	=44	=44	=44
3AA/]V	1D	0r	0r
3%2BBZ	.	.	.
!LO:TX:Z=8:t=colored breve	!	!	!
[3%2.C	1E	.	.
=45	=45	=45	=45
3C/]V	1F	1r	1r
3%2DZ	.	.	.
2.AA/	2E\	2.c\	1a
.	2C/	.	.
4C/	.	8B/L	.
.	.	8A/J	.
=46	=46	=46	=46
2BB/	2D\	2G/	2b\
2AA/	2.E\	2.A/	2.cc\
1E	.	.	.
.	4F\	4B\	4b\
.	2G\	2c\	2g/
=47	=47	=47	=47
1D	2F\	2r	2a/
.	1A	2d\	2f/
2AA/	.	4c\	2e/
.	.	2A/	.
2BB/	4D\	.	4d/
.	4E\	4G/	4g/
=48	=48	=48	=48
2AA/	4F\	4.A/	4f/
.	4G\	.	2d/
.	.	8B\	.
2r	2E\	2G/	.
.	.	.	4c#i/
1Dl	1Dl	1Al	1dl
!!LO:LB:i:g=z
=49||	=49||	=49||	=49||
*>B	*>B	*>B	*>B
*clefF4	*clefF4	*clefGv2	*clefG2
*k[]	*k[]	*k[]	*k[]
*M2/1	*M2/1	*M2/1	*M2/1
*met(C|)	*met(C|)	*met(C|)	*met(C|)
!!section: Qui tollis
!!!OMD: Qui tollis
0r	0F	0r	0a
=50	=50	=50	=50
0r	1F	0r	1a
.	1D	.	1b
=51	=51	=51	=51
0r	1C	0r	1cc
.	[1F	.	[1a
=52	=52	=52	=52
0r	1F]	0r	2a/]
.	.	.	2g/
.	1E	.	1g
=53	=53	=53	=53
0r	0D	0r	1f
.	.	.	[1a
=54	=54	=54	=54
0r	0C	0r	2a/]
.	.	.	2g/
.	.	.	1e
=55	=55	=55	=55
0r	0D	0r	1r
.	.	.	[1d
=56	=56	=56	=56
0r	1D	0r	1d]
.	[1D	.	1d
=57	=57	=57	=57
0r	2D\]	0r	1.f
.	2C/	.	.
.	2BB/	.	.
.	2AA/	.	2d/
=58	=58	=58	=58
0r	1C	0r	1e
.	1D	.	1d
=59	=59	=59	=59
0r	0E	0r	1.g
.	.	.	2a/
=60	=60	=60	=60
0r	1D	0r	1b-i
.	1C	.	[1a
=61	=61	=61	=61
0r	0F	0r	1a]
.	.	.	[1f
=62	=62	=62	=62
0r	0G	0r	2f/]
.	.	.	2d/
.	.	.	1e
=63	=63	=63	=63
0r	0F	0r	0f
=64	=64	=64	=64
[0F	0r	0f	0r
=65	=65	=65	=65
0F]	0r	1f	0r
.	.	1d	.
=66	=66	=66	=66
1F	0r	1c	0r
1D	.	1f	.
=67	=67	=67	=67
1C	0r	1e	0r
[1F	.	[1d	.
=68	=68	=68	=68
1F]	0r	2d\]	0r
.	.	2c\	.
1E	.	[1c	.
=69	=69	=69	=69
0D	0r	1c]	0r
.	.	1B	.
=70	=70	=70	=70
0C	0r	0c	0r
=71	=71	=71	=71
[0F	[0D	[0A	[0a
=72	=72	=72	=72
1F]	1D]	1A]	1a]
1F	1D	1A	1a
=73	=73	=73	=73
0F	0D	0d	0a
=74	=74	=74	=74
[0A	[0AA	[0e	[0cc
=75	=75	=75	=75
1A]	1AA]	1e]	1cc]
1A	1AA	1e	1cc
=76	=76	=76	=76
1A	1AA	1e	1cc
1A	1AA	1e	1cc
=77	=77	=77	=77
1.A	0D	1.f	1a
.	.	.	1f
4G\	.	2d\	.
4F\	.	.	.
=78	=78	=78	=78
1E	1C	1e	1r
1D	1D	1f	1f
=79	=79	=79	=79
0G	0E	2e\	1g
.	.	1c	.
.	.	.	[1b-i
.	.	2B-i\	.
=80	=80	=80	=80
0F	1D	[0d	2b-\]
.	.	.	2a/
.	[1F	.	[1a
=81	=81	=81	=81
1D	1F]	1d]	1a]
1E	1E	1c	1g
=82	=82	=82	=82
1.F	1.D	1.d	1a
.	.	.	1b-i
2E\	2C/	2e\	.
=83	=83	=83	=83
0E;l	0AA;l	0c;l	0a;l
=84	=84	=84	=84
0E	0C	0r	0r
=85	=85	=85	=85
1D	0D	0r	0r
[1F	.	.	.
=86	=86	=86	=86
2F\]	0C	0r	0r
2E\	.	.	.
1E	.	.	.
=87	=87	=87	=87
1D	0D	0r	0r
[1A	.	.	.
=88	=88	=88	=88
2A\]	1.F	0r	0r
2A\	.	.	.
1A	.	.	.
.	2F\	.	.
=89	=89	=89	=89
2r	1F	0r	0r
2.A\	.	.	.
.	1E	.	.
4G\	.	.	.
2G\	.	.	.
=90	=90	=90	=90
2F\	1F	0r	0r
2A\	.	.	.
2B\	1r	.	.
[2c\	.	.	.
=91	=91	=91	=91
2c\]	1C	0r	0r
1A	.	.	.
.	1F	.	.
2F\	.	.	.
=92	=92	=92	=92
2E\	1G	0r	0r
1C	.	.	.
.	[1A	.	.
2D\	.	.	.
=93	=93	=93	=93
2C/	2A\]	0r	0r
1F	2F\	.	.
.	1G	.	.
2E\	.	.	.
=94	=94	=94	=94
1F	1F	1r	1r
1r	1r	[1f	[1a
=95	=95	=95	=95
0r	0r	2f\]	2a/]
.	.	2f\	2a/
.	.	1f	1a
=96	=96	=96	=96
0r	0r	1e	1g
.	.	2.c\	1a
.	.	8B/L	.
.	.	8A/J	.
=97	=97	=97	=97
0r	0r	2G/	2b\
.	.	2.A/	1cc
.	.	4B\	.
.	.	2c\	[2a/
=98	=98	=98	=98
0r	0r	1B	2a/]
.	.	.	2g#i/
.	.	1A	1a
=99	=99	=99	=99
0r	0AA	0r	1a
.	.	.	[1cc
=100	=100	=100	=100
0r	0C	0r	2cc\]
.	.	.	2b\
.	.	.	1g
=101	=101	=101	=101
0r	1D	0r	1f
.	2E\	.	2g/
.	[2F\	.	2a/
=102	=102	=102	=102
0r	2F\]	0r	4b\
.	.	.	4a/
.	4E\	.	4g/
.	4D\	.	4f/
.	1C	.	1e
=103	=103	=103	=103
2.E\	0r	2.c\	0r
4F\	.	4d\	.
2G\	.	2e\	.
[2A\	.	[2A/	.
=104	=104	=104	=104
2A\]	0r	2A/]	0r
2F\	.	1d	.
1E	.	.	.
.	.	2c\	.
=105	=105	=105	=105
2D\	0r	2f\	0r
4C/	.	4e\	.
4D\	.	4f\	.
2C/	.	2g\	.
[2D\	.	[2f\	.
=106	=106	=106	=106
2D\]	0r	2f\]	0r
2F\	.	1d	.
1E	.	.	.
.	.	2c#i\	.
=107	=107	=107	=107
1D	0r	1d	0r
1r	.	1r	.
=108	=108	=108	=108
0E	0C	0c	0g
=109	=109	=109	=109
0D	0F	0d	0a
=110	=110	=110	=110
0G	0E	0e	0b
=111	=111	=111	=111
0A	0AA	0e	0cc
=112	=112	=112	=112
0E	0C	0c	0g
=113	=113	=113	=113
1C	1E	1c	1g
1C	1E	1c	1g
=114	=114	=114	=114
1F	1D	1A	1a
1F	1D	1B	1f
=115	=115	=115	=115
1G	1C	1c	1e
1G	1C	1c	1e
=116	=116	=116	=116
1D	1F	1d	1a
1D	1F	1d	1a
=117	=117	=117	=117
1G	1E	1e	1g
1F	[1D	[1f	1a
=118	=118	=118	=118
1D	2D\]	1f]	1b
.	2C/	.	.
[1A	[1AA	[1e	[1cc
=119	=119	=119	=119
0A]	1AA]	1e]	2cc\]
.	.	.	2a/
.	1C	1c	1a
=120	=120	=120	=120
1.B	0BB	0d	1r
.	.	.	1g
4A\	.	.	.
4B\	.	.	.
=121	=121	=121	=121
1c	0AA	0e	1a
[1A	.	.	[1cc
=122	=122	=122	=122
1A]	1C	1A	2cc\]
.	.	.	2b\
1F	1D	[1d	1a
=123	=123	=123	=123
0G	0E	2d\]	[1g
.	.	2B\	.
.	.	1c	2g/]
.	.	.	2e/
=124	=124	=124	=124
1A	1.D	1d	1.f
2r	.	2B\	.
2G\	2E\	2c\	2g/
=125	=125	=125	=125
2F\	2F\	2d\	2a/
2E\	2G\	1e	2b\
1AA	1A	.	2cc\
.	.	2c\	[2a/
=126	=126	=126	=126
2D\	2F\	2d\	2a/]
2GG/	2G\	2B\	2g/
1D	2F\	1A	2a/
.	2D\	.	2f/
=127	=127	=127	=127
2AA/	2C/	2c\	2e/
1GG	1D	2.B\	2.g/
.	.	4A/	4f/
2D\	2F\	[2d\	2d/
=128	=128	=128	=128
1AA	1E	4d\]	2.e/
.	.	4B\	.
.	.	2c#i\	.
.	.	.	4g/
*	*	*	*^
1Al	1Dl	1dl	1fl\	1al/
*	*	*	*v	*v
==	==	==	==
*-	*-	*-	*-
!!!RDF**kern: l=long note in original notation
!!!RDF**kern: i=editorial accidental
!!!RDF**kern: V=start of tuplet marker
!!!RDF**kern: Z=end of tuplet marker
!!!ENC:	Jesse Rodin 8-17-2012
!!!END:	2012/08/17/
!!!EED:	Jesse Rodin
!!!EEV:	2012/08/17/
!!!ONB:	Translated from MusicXML and edited on 2012/08/17/ by Craig Sapp
!!muse2ps: T^@{OPR}^u^@{ONM}{. }@{OTL}^C^@{COM}^i2I150v85,85,85,150Q16
